X: 3648
T: Bill Sullivan's
R: polka
M: 2/4
K: Amajor
|:a2 a>f|ec a>f|ec a>f|ec BA|
a2 a>f|ec a>f|ce B>c|BA A2:|
|:ce e/c/A/c/|df f>d|ce e/c/A/B/|cB B>A|
ce e/c/A/c/|df f>d|ce B>c|BA A2:|

